X: 1
T: the Trip to the Market
C: Adam Sutherland
D: on the Session A9 "Bottlenecks and Armbreakers" CD
R: reel
Z: 2020 John Chambers <jc:trillian.mit.edu>
M: C|
L: 1/8
K: D
fe !segno!|\
"D"dA~A2 dfab | af~f2 defd | "G"gB~B2 GB~B2 |\
[1,3 "A"ABce aA :|2,4 "A"ABcA "D"d2 :|
dc |:\
"Bm"BF~F2 BdcA | "G"BG~G2 BcdB |\
[1,3 "D"AD~D2 DEFD | "A"EFAB cAec :|\
[2,4 "A"ABce faAB | cefa fed"^d.S."c :|
